assets/icons/verified.svg

<svg width="18" height="18" viewBox="0 0 18 18" fill="none" xmlns="http://www.w3.org/2000/svg">
<g clip-path="url(#clip0_553_1584)">
<path d="M11.7302 7.59047C11.7736 7.53753 11.8059 7.47642 11.8253 7.41075C11.8447 7.34509 11.8507 7.27621 11.843 7.20818C11.8353 7.14015 11.8141 7.07435 11.7805 7.01467C11.747 6.95499 11.7018 6.90265 11.6477 6.86072C11.5376 6.77459 11.3982 6.73485 11.2592 6.74998C11.1202 6.76511 10.9927 6.83391 10.9037 6.94173L8.42117 9.98672L7.09367 8.96672C6.98523 8.87847 6.84661 8.83605 6.70735 8.84852C6.56809 8.86099 6.43921 8.92736 6.34817 9.03347C6.3037 9.08552 6.2701 9.14595 6.24938 9.2112C6.22865 9.27644 6.22122 9.34518 6.22751 9.41335C6.2338 9.48152 6.2537 9.54774 6.28601 9.60809C6.31833 9.66844 6.36242 9.7217 6.41567 9.76473L8.15567 11.1222C8.26555 11.2116 8.40632 11.2539 8.54726 11.2398C8.6882 11.2258 8.81785 11.1565 8.90792 11.0472L11.7279 7.58223L11.7302 7.59047Z" fill="url(#paint0_linear_553_1584)"/>
<path fill-rule="evenodd" clip-rule="evenodd" d="M7.76296 3.53632C8.16346 3.24232 8.36371 3.09532 8.58046 3.03832C8.77414 2.98918 8.97703 2.98918 9.17071 3.03832C9.38971 3.09532 9.59071 3.24232 9.98821 3.53632L10.496 3.90907C10.6347 4.01107 10.7045 4.06207 10.7795 4.10182C10.8465 4.13682 10.9162 4.16582 10.9887 4.18882C11.0705 4.21357 11.1552 4.22632 11.3255 4.25257L11.948 4.34782C12.4392 4.42282 12.6845 4.46107 12.878 4.57582C13.0505 4.67707 13.1945 4.82107 13.2957 4.99357C13.4105 5.18857 13.448 5.43457 13.5237 5.92357L13.619 6.54607C13.6452 6.71632 13.658 6.80182 13.6827 6.88357C13.7052 6.95607 13.7342 7.02557 13.7697 7.09207C13.8102 7.16707 13.8605 7.23682 13.9625 7.37557L14.3352 7.88332C14.6292 8.28382 14.7762 8.48407 14.8332 8.70082C14.8824 8.8945 14.8824 9.09739 14.8332 9.29107C14.777 9.51007 14.6292 9.71107 14.3352 10.1086L13.9625 10.6163C13.8911 10.7058 13.8267 10.8006 13.7697 10.8998C13.7341 10.9669 13.705 11.0372 13.6827 11.1098C13.658 11.1908 13.6452 11.2756 13.619 11.4458L13.5237 12.0683C13.4487 12.5596 13.4105 12.8048 13.2957 12.9983C13.1945 13.1708 13.0505 13.3148 12.878 13.4161C12.683 13.5308 12.437 13.5683 11.948 13.6441L11.3255 13.7393C11.2117 13.7522 11.0992 13.7738 10.9887 13.8038C10.9162 13.8258 10.8465 13.8548 10.7795 13.8908C10.7045 13.9306 10.6347 13.9808 10.496 14.0836L9.98821 14.4563C9.58771 14.7503 9.38746 14.8973 9.17071 14.9543C8.97703 15.0035 8.77414 15.0035 8.58046 14.9543C8.36146 14.8973 8.16046 14.7503 7.76296 14.4563L7.25521 14.0836C7.16575 14.0122 7.07098 13.9478 6.97171 13.8908C6.90486 13.8553 6.8348 13.8262 6.76246 13.8038C6.65201 13.7738 6.53944 13.7522 6.42571 13.7393L5.80321 13.6441C5.31196 13.5691 5.06596 13.5316 4.87321 13.4161C4.70132 13.3138 4.55772 13.1702 4.45546 12.9983C4.34071 12.8033 4.30321 12.5573 4.22746 12.0683L4.13221 11.4458C4.10596 11.2756 4.09321 11.1908 4.06846 11.1091C4.04658 11.0366 4.01743 10.9665 3.98146 10.8998C3.92451 10.8006 3.86008 10.7058 3.78871 10.6163L3.41596 10.1086C3.12196 9.70807 2.97496 9.50857 2.91796 9.29107C2.86882 9.09739 2.86882 8.8945 2.91796 8.70082C2.97421 8.48182 3.12196 8.28082 3.41596 7.88332L3.78871 7.37557C3.89071 7.23682 3.94171 7.16707 3.98146 7.09207C4.01646 7.02557 4.04546 6.95582 4.06846 6.88282C4.09321 6.80107 4.10596 6.71632 4.13221 6.54607L4.22746 5.92357C4.30246 5.43232 4.34071 5.18632 4.45546 4.99357C4.55671 4.82107 4.70071 4.67857 4.87321 4.57582C5.06821 4.46107 5.31421 4.42357 5.80321 4.34782L6.42571 4.25257C6.59596 4.22707 6.68146 4.21357 6.76246 4.18882C6.83496 4.16632 6.90471 4.13732 6.97171 4.10182C7.04671 4.06207 7.11646 4.01107 7.25521 3.90907L7.76296 3.53632ZM9.54796 4.14082L10.0812 4.53232C10.1945 4.61557 10.3062 4.69807 10.4307 4.76407C10.5407 4.82257 10.6547 4.86982 10.7727 4.90582C10.9076 4.94312 11.0449 4.97094 11.1837 4.98907L11.8377 5.08957C12.3935 5.17507 12.4625 5.19832 12.503 5.22232C12.5665 5.26032 12.617 5.31082 12.6545 5.37382C12.6785 5.41432 12.7025 5.48332 12.7872 6.03907L12.8877 6.69307C12.9058 6.83185 12.9337 6.96918 12.971 7.10407C13.0075 7.22307 13.0547 7.33707 13.1127 7.44607C13.1787 7.57057 13.2612 7.68232 13.3445 7.79557L13.736 8.32882C14.069 8.78182 14.1005 8.84707 14.1125 8.89357C14.1298 8.96403 14.1298 9.03762 14.1125 9.10807C14.1005 9.15382 14.069 9.21907 13.736 9.67282L13.3445 10.2061C13.2612 10.3193 13.1787 10.4311 13.1127 10.5556C13.0547 10.6648 13.0073 10.7793 12.971 10.8976C12.9337 11.0325 12.9058 11.1698 12.8877 11.3086L12.7872 11.9626C12.7017 12.5183 12.6785 12.5873 12.6545 12.6278C12.6169 12.6898 12.5649 12.7418 12.503 12.7793C12.4625 12.8033 12.3935 12.8273 11.8377 12.9121L11.1837 13.0126C11.0449 13.0307 10.9076 13.0585 10.7727 13.0958C10.6545 13.1321 10.54 13.1796 10.4307 13.2376C10.3062 13.3036 10.1945 13.3861 10.0812 13.4693L9.54796 13.8608C9.09496 14.1938 9.02971 14.2253 8.98321 14.2373C8.91276 14.2546 8.83917 14.2546 8.76871 14.2373C8.72296 14.2253 8.65771 14.1938 8.20396 13.8608L7.67071 13.4693C7.55976 13.384 7.44297 13.3066 7.32121 13.2376C7.21196 13.1796 7.09745 13.1321 6.97921 13.0958C6.84432 13.0585 6.70698 13.0307 6.56821 13.0126L5.91421 12.9121C5.35846 12.8266 5.28946 12.8033 5.24896 12.7793C5.187 12.7418 5.13503 12.6898 5.09746 12.6278C5.07346 12.5873 5.04946 12.5183 4.96471 11.9626L4.86421 11.3086C4.84608 11.1698 4.81826 11.0325 4.78096 10.8976C4.74466 10.7793 4.6972 10.6648 4.63921 10.5556C4.57321 10.4311 4.49071 10.3193 4.40746 10.2061L4.01596 9.67282C3.68296 9.21982 3.65146 9.15457 3.63946 9.10807C3.62217 9.03762 3.62217 8.96403 3.63946 8.89357C3.65146 8.84782 3.68296 8.78257 4.01596 8.32882L4.40746 7.79557C4.49071 7.68232 4.57321 7.57057 4.63921 7.44607C4.69721 7.33607 4.74446 7.22207 4.78096 7.10407C4.81826 6.96918 4.84608 6.83185 4.86421 6.69307L4.96471 6.03907C5.05021 5.48332 5.07346 5.41432 5.09746 5.37382C5.13503 5.31186 5.187 5.25989 5.24896 5.22232C5.28946 5.19832 5.35846 5.17432 5.91421 5.08957L6.56821 4.98907C6.70698 4.97094 6.84432 4.94312 6.97921 4.90582C7.09821 4.86932 7.21221 4.82207 7.32121 4.76407C7.44571 4.69807 7.55746 4.61557 7.67071 4.53232L8.20396 4.14082C8.65696 3.80782 8.72221 3.77632 8.76871 3.76432C8.83917 3.74703 8.91276 3.74703 8.98321 3.76432C9.02896 3.77632 9.09421 3.80782 9.54796 4.14082Z" fill="url(#paint1_linear_553_1584)"/>
</g>
<g opacity="0.5" clip-path="url(#clip1_553_1584)" filter="url(#filter0_f_553_1584)">
<path d="M11.7302 7.59047C11.7736 7.53753 11.8059 7.47642 11.8253 7.41075C11.8447 7.34509 11.8507 7.27621 11.843 7.20818C11.8353 7.14015 11.8141 7.07435 11.7805 7.01467C11.747 6.95499 11.7018 6.90265 11.6477 6.86072C11.5376 6.77459 11.3982 6.73485 11.2592 6.74998C11.1202 6.76511 10.9927 6.83391 10.9037 6.94173L8.42117 9.98672L7.09367 8.96672C6.98523 8.87847 6.84661 8.83605 6.70735 8.84852C6.56809 8.86099 6.43921 8.92736 6.34817 9.03347C6.3037 9.08552 6.2701 9.14595 6.24938 9.2112C6.22865 9.27644 6.22122 9.34518 6.22751 9.41335C6.2338 9.48152 6.2537 9.54774 6.28601 9.60809C6.31833 9.66844 6.36242 9.7217 6.41567 9.76473L8.15567 11.1222C8.26555 11.2116 8.40632 11.2539 8.54726 11.2398C8.6882 11.2258 8.81785 11.1565 8.90792 11.0472L11.7279 7.58223L11.7302 7.59047Z" fill="url(#paint2_linear_553_1584)"/>
<path fill-rule="evenodd" clip-rule="evenodd" d="M7.76296 3.53632C8.16346 3.24232 8.36371 3.09532 8.58046 3.03832C8.77414 2.98918 8.97703 2.98918 9.17071 3.03832C9.38971 3.09532 9.59071 3.24232 9.98821 3.53632L10.496 3.90907C10.6347 4.01107 10.7045 4.06207 10.7795 4.10182C10.8465 4.13682 10.9162 4.16582 10.9887 4.18882C11.0705 4.21357 11.1552 4.22632 11.3255 4.25257L11.948 4.34782C12.4392 4.42282 12.6845 4.46107 12.878 4.57582C13.0505 4.67707 13.1945 4.82107 13.2957 4.99357C13.4105 5.18857 13.448 5.43457 13.5237 5.92357L13.619 6.54607C13.6452 6.71632 13.658 6.80182 13.6827 6.88357C13.7052 6.95607 13.7342 7.02557 13.7697 7.09207C13.8102 7.16707 13.8605 7.23682 13.9625 7.37557L14.3352 7.88332C14.6292 8.28382 14.7762 8.48407 14.8332 8.70082C14.8824 8.8945 14.8824 9.09739 14.8332 9.29107C14.777 9.51007 14.6292 9.71107 14.3352 10.1086L13.9625 10.6163C13.8911 10.7058 13.8267 10.8006 13.7697 10.8998C13.7341 10.9669 13.705 11.0372 13.6827 11.1098C13.658 11.1908 13.6452 11.2756 13.619 11.4458L13.5237 12.0683C13.4487 12.5596 13.4105 12.8048 13.2957 12.9983C13.1945 13.1708 13.0505 13.3148 12.878 13.4161C12.683 13.5308 12.437 13.5683 11.948 13.6441L11.3255 13.7393C11.2117 13.7522 11.0992 13.7738 10.9887 13.8038C10.9162 13.8258 10.8465 13.8548 10.7795 13.8908C10.7045 13.9306 10.6347 13.9808 10.496 14.0836L9.98821 14.4563C9.58771 14.7503 9.38746 14.8973 9.17071 14.9543C8.97703 15.0035 8.77414 15.0035 8.58046 14.9543C8.36146 14.8973 8.16046 14.7503 7.76296 14.4563L7.25521 14.0836C7.16575 14.0122 7.07098 13.9478 6.97171 13.8908C6.90486 13.8553 6.8348 13.8262 6.76246 13.8038C6.65201 13.7738 6.53944 13.7522 6.42571 13.7393L5.80321 13.6441C5.31196 13.5691 5.06596 13.5316 4.87321 13.4161C4.70132 13.3138 4.55772 13.1702 4.45546 12.9983C4.34071 12.8033 4.30321 12.5573 4.22746 12.0683L4.13221 11.4458C4.10596 11.2756 4.09321 11.1908 4.06846 11.1091C4.04658 11.0366 4.01743 10.9665 3.98146 10.8998C3.92451 10.8006 3.86008 10.7058 3.78871 10.6163L3.41596 10.1086C3.12196 9.70807 2.97496 9.50857 2.91796 9.29107C2.86882 9.09739 2.86882 8.8945 2.91796 8.70082C2.97421 8.48182 3.12196 8.28082 3.41596 7.88332L3.78871 7.37557C3.89071 7.23682 3.94171 7.16707 3.98146 7.09207C4.01646 7.02557 4.04546 6.95582 4.06846 6.88282C4.09321 6.80107 4.10596 6.71632 4.13221 6.54607L4.22746 5.92357C4.30246 5.43232 4.34071 5.18632 4.45546 4.99357C4.55671 4.82107 4.70071 4.67857 4.87321 4.57582C5.06821 4.46107 5.31421 4.42357 5.80321 4.34782L6.42571 4.25257C6.59596 4.22707 6.68146 4.21357 6.76246 4.18882C6.83496 4.16632 6.90471 4.13732 6.97171 4.10182C7.04671 4.06207 7.11646 4.01107 7.25521 3.90907L7.76296 3.53632ZM9.54796 4.14082L10.0812 4.53232C10.1945 4.61557 10.3062 4.69807 10.4307 4.76407C10.5407 4.82257 10.6547 4.86982 10.7727 4.90582C10.9076 4.94312 11.0449 4.97094 11.1837 4.98907L11.8377 5.08957C12.3935 5.17507 12.4625 5.19832 12.503 5.22232C12.5665 5.26032 12.617 5.31082 12.6545 5.37382C12.6785 5.41432 12.7025 5.48332 12.7872 6.03907L12.8877 6.69307C12.9058 6.83185 12.9337 6.96918 12.971 7.10407C13.0075 7.22307 13.0547 7.33707 13.1127 7.44607C13.1787 7.57057 13.2612 7.68232 13.3445 7.79557L13.736 8.32882C14.069 8.78182 14.1005 8.84707 14.1125 8.89357C14.1298 8.96403 14.1298 9.03762 14.1125 9.10807C14.1005 9.15382 14.069 9.21907 13.736 9.67282L13.3445 10.2061C13.2612 10.3193 13.1787 10.4311 13.1127 10.5556C13.0547 10.6648 13.0073 10.7793 12.971 10.8976C12.9337 11.0325 12.9058 11.1698 12.8877 11.3086L12.7872 11.9626C12.7017 12.5183 12.6785 12.5873 12.6545 12.6278C12.6169 12.6898 12.5649 12.7418 12.503 12.7793C12.4625 12.8033 12.3935 12.8273 11.8377 12.9121L11.1837 13.0126C11.0449 13.0307 10.9076 13.0585 10.7727 13.0958C10.6545 13.1321 10.54 13.1796 10.4307 13.2376C10.3062 13.3036 10.1945 13.3861 10.0812 13.4693L9.54796 13.8608C9.09496 14.1938 9.02971 14.2253 8.98321 14.2373C8.91276 14.2546 8.83917 14.2546 8.76871 14.2373C8.72296 14.2253 8.65771 14.1938 8.20396 13.8608L7.67071 13.4693C7.55976 13.384 7.44297 13.3066 7.32121 13.2376C7.21196 13.1796 7.09745 13.1321 6.97921 13.0958C6.84432 13.0585 6.70698 13.0307 6.56821 13.0126L5.91421 12.9121C5.35846 12.8266 5.28946 12.8033 5.24896 12.7793C5.187 12.7418 5.13503 12.6898 5.09746 12.6278C5.07346 12.5873 5.04946 12.5183 4.96471 11.9626L4.86421 11.3086C4.84608 11.1698 4.81826 11.0325 4.78096 10.8976C4.74466 10.7793 4.6972 10.6648 4.63921 10.5556C4.57321 10.4311 4.49071 10.3193 4.40746 10.2061L4.01596 9.67282C3.68296 9.21982 3.65146 9.15457 3.63946 9.10807C3.62217 9.03762 3.62217 8.96403 3.63946 8.89357C3.65146 8.84782 3.68296 8.78257 4.01596 8.32882L4.40746 7.79557C4.49071 7.68232 4.57321 7.57057 4.63921 7.44607C4.69721 7.33607 4.74446 7.22207 4.78096 7.10407C4.81826 6.96918 4.84608 6.83185 4.86421 6.69307L4.96471 6.03907C5.05021 5.48332 5.07346 5.41432 5.09746 5.37382C5.13503 5.31186 5.187 5.25989 5.24896 5.22232C5.28946 5.19832 5.35846 5.17432 5.91421 5.08957L6.56821 4.98907C6.70698 4.97094 6.84432 4.94312 6.97921 4.90582C7.09821 4.86932 7.21221 4.82207 7.32121 4.76407C7.44571 4.69807 7.55746 4.61557 7.67071 4.53232L8.20396 4.14082C8.65696 3.80782 8.72221 3.77632 8.76871 3.76432C8.83917 3.74703 8.91276 3.74703 8.98321 3.76432C9.02896 3.77632 9.09421 3.80782 9.54796 4.14082Z" fill="url(#paint3_linear_553_1584)"/>
</g>
<defs>
<filter id="filter0_f_553_1584" x="0.180127" y="0.300488" width="17.4" height="17.4" filterUnits="userSpaceOnUse" color-interpolation-filters="sRGB">
<feFlood flood-opacity="0" result="BackgroundImageFix"/>
<feBlend mode="normal" in="SourceGraphic" in2="BackgroundImageFix" result="shape"/>
<feGaussianBlur stdDeviation="1.35" result="effect1_foregroundBlur_553_1584"/>
</filter>
<linearGradient id="paint0_linear_553_1584" x1="5.1256" y1="11.2553" x2="14.5201" y2="5.56498" gradientUnits="userSpaceOnUse">
<stop stop-color="#FF97CD"/>
<stop offset="1" stop-color="#FF349D"/>
</linearGradient>
<linearGradient id="paint1_linear_553_1584" x1="0.535436" y1="15.0254" x2="22.719" y2="4.27929" gradientUnits="userSpaceOnUse">
<stop stop-color="#FF97CD"/>
<stop offset="1" stop-color="#FF349D"/>
</linearGradient>
<linearGradient id="paint2_linear_553_1584" x1="5.1256" y1="11.2553" x2="14.5201" y2="5.56498" gradientUnits="userSpaceOnUse">
<stop stop-color="#FF97CD"/>
<stop offset="1" stop-color="#FF349D"/>
</linearGradient>
<linearGradient id="paint3_linear_553_1584" x1="0.535436" y1="15.0254" x2="22.719" y2="4.27929" gradientUnits="userSpaceOnUse">
<stop stop-color="#FF97CD"/>
<stop offset="1" stop-color="#FF349D"/>
</linearGradient>
<clipPath id="clip0_553_1584">
<rect width="12" height="12" fill="white" transform="translate(2.88013 3.00049)"/>
</clipPath>
<clipPath id="clip1_553_1584">
<rect width="12" height="12" fill="white" transform="translate(2.88013 3.00049)"/>
</clipPath>
</defs>
</svg>

<svg xmlns="http://www.w3.org/2000/svg" width="18" height="18" fill="none" viewBox="0 0 18 18"><g clip-path="url(#a)"><path fill="url(#b)" d="M11.73 7.59a.51.51 0 0 0-.082-.73.536.536 0 0 0-.744.082L8.42 9.987l-1.327-1.02a.536.536 0 0 0-.845.244.51.51 0 0 0 .167.554l1.74 1.357a.536.536 0 0 0 .752-.075l2.82-3.465z"/><path fill="url(#c)" fill-rule="evenodd" d="M7.763 3.536c.4-.294.6-.44.817-.498a1.2 1.2 0 0 1 .59 0c.22.057.42.204.818.498l.508.373c.139.102.208.153.284.193a1.3 1.3 0 0 0 .209.087c.081.025.166.037.336.064l.623.095c.491.075.736.113.93.228.172.101.316.245.418.418.115.195.152.44.228.93l.095.622c.026.17.039.256.064.338q.033.108.087.208c.04.075.09.145.193.284l.372.507c.294.4.441.601.498.818.05.194.05.396 0 .59-.056.22-.204.42-.498.818l-.373.507a2 2 0 0 0-.192.284 1.2 1.2 0 0 0-.087.21c-.025.08-.038.166-.064.336l-.095.622c-.075.492-.113.737-.228.93a1.2 1.2 0 0 1-.418.418c-.195.115-.441.152-.93.228l-.623.095a2 2 0 0 0-.336.065 1 1 0 0 0-.21.087c-.075.04-.144.09-.283.193l-.508.372c-.4.294-.6.441-.817.498a1.2 1.2 0 0 1-.59 0c-.22-.057-.42-.204-.818-.498l-.508-.372a2 2 0 0 0-.283-.193 1.2 1.2 0 0 0-.21-.087 2 2 0 0 0-.336-.065l-.623-.095c-.491-.075-.737-.112-.93-.228a1.2 1.2 0 0 1-.418-.418c-.114-.195-.152-.44-.228-.93l-.095-.622c-.026-.17-.039-.255-.064-.337a1 1 0 0 0-.087-.21 2 2 0 0 0-.192-.283l-.373-.507c-.294-.4-.441-.6-.498-.818a1.2 1.2 0 0 1 0-.59c.056-.22.204-.42.498-.818l.373-.507c.102-.14.153-.209.192-.284q.053-.099.087-.21c.025-.08.038-.166.064-.336l.095-.622c.075-.492.114-.738.228-.93.102-.173.246-.315.418-.418.195-.115.441-.152.93-.228l.623-.095a2.4 2.4 0 0 0 .336-.064q.11-.034.21-.087c.075-.04.144-.09.283-.193zm1.785.605.533.391c.114.084.225.166.35.232q.165.088.342.142a3 3 0 0 0 .41.083l.655.1c.556.086.625.11.665.133a.43.43 0 0 1 .152.152c.024.04.048.11.132.665l.1.654q.029.208.084.411.055.18.142.342c.066.125.148.236.232.35l.391.533c.333.453.364.518.377.565a.45.45 0 0 1 0 .214c-.012.046-.044.111-.377.565l-.392.533a3 3 0 0 0-.231.35q-.087.164-.142.342a3 3 0 0 0-.083.41l-.1.655c-.086.555-.11.624-.133.665a.45.45 0 0 1-.152.151c-.04.024-.11.048-.665.133l-.654.1a3 3 0 0 0-.411.084 2 2 0 0 0-.342.142c-.125.066-.236.148-.35.231l-.533.392c-.453.333-.518.364-.565.376a.45.45 0 0 1-.214 0c-.046-.012-.111-.043-.565-.376l-.533-.392a3 3 0 0 0-.35-.231 2 2 0 0 0-.342-.142 3 3 0 0 0-.41-.083l-.655-.1c-.556-.086-.625-.11-.665-.134a.45.45 0 0 1-.152-.151c-.024-.04-.048-.11-.132-.665l-.1-.654a3 3 0 0 0-.084-.411 2 2 0 0 0-.142-.342 3 3 0 0 0-.232-.35l-.391-.533c-.333-.453-.365-.518-.377-.565a.45.45 0 0 1 0-.214c.012-.046.044-.111.377-.565l.391-.533c.084-.114.166-.225.232-.35q.087-.165.142-.342a3 3 0 0 0 .083-.41l.1-.655c.086-.556.11-.625.133-.665a.45.45 0 0 1 .152-.152c.04-.024.11-.048.665-.132l.654-.1a3 3 0 0 0 .411-.084q.18-.055.342-.142c.125-.066.236-.148.35-.232l.533-.391c.453-.333.518-.365.565-.377a.45.45 0 0 1 .214 0c.046.012.111.044.565.377" clip-rule="evenodd"/></g><g clip-path="url(#d)" filter="url(#e)" opacity=".5"><path fill="url(#f)" d="M11.73 7.59a.51.51 0 0 0-.082-.73.536.536 0 0 0-.744.082L8.42 9.987l-1.327-1.02a.536.536 0 0 0-.845.244.51.51 0 0 0 .167.554l1.74 1.357a.536.536 0 0 0 .752-.075l2.82-3.465z"/><path fill="url(#g)" fill-rule="evenodd" d="M7.763 3.536c.4-.294.6-.44.817-.498a1.2 1.2 0 0 1 .59 0c.22.057.42.204.818.498l.508.373c.139.102.208.153.284.193a1.3 1.3 0 0 0 .209.087c.081.025.166.037.336.064l.623.095c.491.075.736.113.93.228.172.101.316.245.418.418.115.195.152.44.228.93l.095.622c.026.17.039.256.064.338q.033.108.087.208c.04.075.09.145.193.284l.372.507c.294.4.441.601.498.818.05.194.05.396 0 .59-.056.22-.204.42-.498.818l-.373.507a2 2 0 0 0-.192.284 1.2 1.2 0 0 0-.087.21c-.025.08-.038.166-.064.336l-.095.622c-.075.492-.113.737-.228.93a1.2 1.2 0 0 1-.418.418c-.195.115-.441.152-.93.228l-.623.095a2 2 0 0 0-.336.065 1 1 0 0 0-.21.087c-.075.04-.144.09-.283.193l-.508.372c-.4.294-.6.441-.817.498a1.2 1.2 0 0 1-.59 0c-.22-.057-.42-.204-.818-.498l-.508-.372a2 2 0 0 0-.283-.193 1.2 1.2 0 0 0-.21-.087 2 2 0 0 0-.336-.065l-.623-.095c-.491-.075-.737-.112-.93-.228a1.2 1.2 0 0 1-.418-.418c-.114-.195-.152-.44-.228-.93l-.095-.622c-.026-.17-.039-.255-.064-.337a1 1 0 0 0-.087-.21 2 2 0 0 0-.192-.283l-.373-.507c-.294-.4-.441-.6-.498-.818a1.2 1.2 0 0 1 0-.59c.056-.22.204-.42.498-.818l.373-.507c.102-.14.153-.209.192-.284q.053-.099.087-.21c.025-.08.038-.166.064-.336l.095-.622c.075-.492.114-.738.228-.93.102-.173.246-.315.418-.418.195-.115.441-.152.93-.228l.623-.095a2.4 2.4 0 0 0 .336-.064q.11-.034.21-.087c.075-.04.144-.09.283-.193zm1.785.605.533.391c.114.084.225.166.35.232q.165.088.342.142a3 3 0 0 0 .41.083l.655.1c.556.086.625.11.665.133a.43.43 0 0 1 .152.152c.024.04.048.11.132.665l.1.654q.029.208.084.411.055.18.142.342c.066.125.148.236.232.35l.391.533c.333.453.364.518.377.565a.45.45 0 0 1 0 .214c-.012.046-.044.111-.377.565l-.392.533a3 3 0 0 0-.231.35q-.087.164-.142.342a3 3 0 0 0-.083.41l-.1.655c-.086.555-.11.624-.133.665a.45.45 0 0 1-.152.151c-.04.024-.11.048-.665.133l-.654.1a3 3 0 0 0-.411.084 2 2 0 0 0-.342.142c-.125.066-.236.148-.35.231l-.533.392c-.453.333-.518.364-.565.376a.45.45 0 0 1-.214 0c-.046-.012-.111-.043-.565-.376l-.533-.392a3 3 0 0 0-.35-.231 2 2 0 0 0-.342-.142 3 3 0 0 0-.41-.083l-.655-.1c-.556-.086-.625-.11-.665-.134a.45.45 0 0 1-.152-.151c-.024-.04-.048-.11-.132-.665l-.1-.654a3 3 0 0 0-.084-.411 2 2 0 0 0-.142-.342 3 3 0 0 0-.232-.35l-.391-.533c-.333-.453-.365-.518-.377-.565a.45.45 0 0 1 0-.214c.012-.046.044-.111.377-.565l.391-.533c.084-.114.166-.225.232-.35q.087-.165.142-.342a3 3 0 0 0 .083-.41l.1-.655c.086-.556.11-.625.133-.665a.45.45 0 0 1 .152-.152c.04-.024.11-.048.665-.132l.654-.1a3 3 0 0 0 .411-.084q.18-.055.342-.142c.125-.066.236-.148.35-.232l.533-.391c.453-.333.518-.365.565-.377a.45.45 0 0 1 .214 0c.046.012.111.044.565.377" clip-rule="evenodd"/></g><defs><linearGradient id="b" x1="5.126" x2="14.52" y1="11.255" y2="5.565" gradientUnits="userSpaceOnUse"><stop stop-color="#ff97cd"/><stop offset="1" stop-color="#ff349d"/></linearGradient><linearGradient id="c" x1=".535" x2="22.719" y1="15.025" y2="4.279" gradientUnits="userSpaceOnUse"><stop stop-color="#ff97cd"/><stop offset="1" stop-color="#ff349d"/></linearGradient><linearGradient id="f" x1="5.126" x2="14.52" y1="11.255" y2="5.565" gradientUnits="userSpaceOnUse"><stop stop-color="#ff97cd"/><stop offset="1" stop-color="#ff349d"/></linearGradient><linearGradient id="g" x1=".535" x2="22.719" y1="15.025" y2="4.279" gradientUnits="userSpaceOnUse"><stop stop-color="#ff97cd"/><stop offset="1" stop-color="#ff349d"/></linearGradient><clipPath id="a"><path fill="#fff" d="M2.88 3h12v12h-12z"/></clipPath><clipPath id="d"><path fill="#fff" d="M2.88 3h12v12h-12z"/></clipPath><filter id="e" width="17.4" height="17.4" x=".18" y=".3" color-interpolation-filters="sRGB" filterUnits="userSpaceOnUse"><feFlood flood-opacity="0" result="BackgroundImageFix"/><feBlend in="SourceGraphic" in2="BackgroundImageFix" result="shape"/><feGaussianBlur result="effect1_foregroundBlur_553_1584" stdDeviation="1.35"/></filter></defs></svg>
